img/clear.svg

<svg width="61" height="61" viewBox="0 0 61 61" fill="none" xmlns="http://www.w3.org/2000/svg">
<path d="M45 40C45 41.0609 44.602 42.0783 43.8935 42.8284C43.185 43.5786 42.2242 44 41.2222 44H18.5556L11 52V20C11 18.9391 11.398 17.9217 12.1065 17.1716C12.815 16.4214 13.7758 16 14.7778 16H41.2222C42.2242 16 43.185 16.4214 43.8935 17.1716C44.602 17.9217 45 18.9391 45 20V40Z" stroke="#E87C40" stroke-width="5" stroke-linecap="round" stroke-linejoin="round"/>
<path d="M53 33C53 34.0609 52.602 35.0783 51.8935 35.8284C51.185 36.5786 50.2242 37 49.2222 37H26.5556L19 45V13C19 11.9391 19.398 10.9217 20.1065 10.1716C20.815 9.42143 21.7758 9 22.7778 9H49.2222C50.2242 9 51.185 9.42143 51.8935 10.1716C52.602 10.9217 53 11.9391 53 13V33Z" stroke="#110303" stroke-width="5" stroke-linecap="round" stroke-linejoin="round"/>
</svg>

<svg width="61" height="61" fill="none" xmlns="http://www.w3.org/2000/svg"><path d="M45 40c0 1.06-.398 2.078-1.106 2.828A3.674 3.674 0 0 1 41.222 44H18.556L11 52V20c0-1.06.398-2.078 1.107-2.828A3.674 3.674 0 0 1 14.777 16h26.445c1.002 0 1.963.421 2.672 1.172A4.122 4.122 0 0 1 45 20v20Z" stroke="#E87C40" stroke-width="5" stroke-linecap="round" stroke-linejoin="round"/><path d="M53 33c0 1.06-.398 2.078-1.106 2.828A3.674 3.674 0 0 1 49.222 37H26.556L19 45V13c0-1.06.398-2.078 1.107-2.828A3.674 3.674 0 0 1 22.776 9h26.445c1.002 0 1.963.421 2.672 1.172A4.122 4.122 0 0 1 53 13v20Z" stroke="#110303" stroke-width="5" stroke-linecap="round" stroke-linejoin="round"/></svg>
